img/facebook.svg

<svg width="44" height="44" viewBox="0 0 44 44" fill="none" xmlns="http://www.w3.org/2000/svg">
<path fill-rule="evenodd" clip-rule="evenodd" d="M21.8938 1.4839C33.1232 1.4839 42.2265 10.5873 42.2265 21.8169C42.2265 33.0461 33.1232 42.1494 21.8938 42.1494C10.6643 42.1494 1.56108 33.0461 1.56108 21.8169C1.56108 10.5873 10.6643 1.4839 21.8938 1.4839Z" fill="#212A3A"/>
<path d="M28 15V11H24C21.7909 11 20 12.7909 20 15V19H16V23H20V33H24V23H28V19H24V15H28Z" fill="white"/>
</svg>

<svg width="44" height="44" fill="none" xmlns="http://www.w3.org/2000/svg"><path fill-rule="evenodd" clip-rule="evenodd" d="M21.894 1.484c11.23 0 20.333 9.103 20.333 20.333 0 11.23-9.104 20.332-20.333 20.332-11.23 0-20.333-9.103-20.333-20.332 0-11.23 9.103-20.333 20.333-20.333z" fill="#212A3A"/><path d="M28 15v-4h-4a4 4 0 00-4 4v4h-4v4h4v10h4V23h4v-4h-4v-4h4z" fill="#fff"/></svg>
